UI/forms/images/settings/output.svg

<svg clip-rule="evenodd" fill-rule="evenodd" stroke-linejoin="round" stroke-miterlimit="1.41421" viewBox="0 0 16 16" xmlns="http://www.w3.org/2000/svg"><path d="m12 15h-8c1.48-.61 2.09-1.39 2.34-2h-5.34c-.55 0-1-.45-1-1v-9c0-.55.45-1 1-1h14c.55 0 1 .45 1 1v1.191h-1v-1.191h-14v8h14v-1.248h1v2.248c0 .55-.45 1-1 1h-5.34c.25.61.86 1.39 2.34 2zm-.019-4.65v-2.501h-6.016v-1.667h6.016v-2.501l4.011 3.334z"/></svg>

<?xml version="1.0" encoding="UTF-8" standalone="no"?>
<!DOCTYPE svg PUBLIC "-//W3C//DTD SVG 1.1//EN" "http://www.w3.org/Graphics/SVG/1.1/DTD/svg11.dtd">
<svg width="100%" height="100%" viewBox="0 0 16 16" version="1.1" xmlns="http://www.w3.org/2000/svg" xmlns:xlink="http://www.w3.org/1999/xlink" xml:space="preserve" xmlns:serif="http://www.serif.com/" style="fill-rule:evenodd;clip-rule:evenodd;stroke-linejoin:round;stroke-miterlimit:1.41421;">
    <path d="M12,15L4,15C5.48,14.39 6.09,13.61 6.34,13L1,13C0.45,13 0,12.55 0,12L0,3C0,2.45 0.45,2 1,2L15,2C15.55,2 16,2.45 16,3L16,4.191L15,4.191L15,3L1,3L1,11L15,11L15,9.752L16,9.752L16,12C16,12.55 15.55,13 15,13L9.66,13C9.91,13.61 10.52,14.39 12,15ZM11.981,10.35L11.981,7.849L5.965,7.849L5.965,6.182L11.981,6.182L11.981,3.681L15.992,7.015L11.981,10.35Z" style="fill:#000000;"/>
</svg>
